Newaita-dark/actions/22/window-close.svg

<svg height="22" viewBox="0 0 22 22" width="22" xmlns="http://www.w3.org/2000/svg"><g fill="#f44336"><path d="m3.839844 19.449219 15.4375-15.4375c.175781-.175781.175781-.464844 0-.644531l-.644532-.640626c-.175781-.179687-.464843-.179687-.644531 0l-15.433593 15.433594c-.179688.179688-.179688.46875 0 .644532l.640624.644531c.179688.175781.46875.175781.644532 0zm0 0"/><path d="m2.554688 4.011719 15.433593 15.4375c.179688.175781.46875.175781.644531 0l.644532-.644531c.175781-.175782.175781-.464844 0-.644532l-15.4375-15.433594c-.175782-.179687-.464844-.179687-.644532 0l-.640624.640626c-.179688.179687-.179688.46875 0 .644531zm0 0"/></g></svg>

<?xml version="1.0" encoding="UTF-8"?>
<svg xmlns="http://www.w3.org/2000/svg" xmlns:xlink="http://www.w3.org/1999/xlink" width="22px" height="22px" viewBox="0 0 22 22" version="1.1">
<g id="surface1">
<path style=" stroke:none;fill-rule:nonzero;fill:rgb(95.686275%,26.274511%,21.176471%);fill-opacity:1;" d="M 3.839844 19.449219 L 19.277344 4.011719 C 19.453125 3.835938 19.453125 3.546875 19.277344 3.367188 L 18.632812 2.726562 C 18.457031 2.546875 18.167969 2.546875 17.988281 2.726562 L 2.554688 18.160156 C 2.375 18.339844 2.375 18.628906 2.554688 18.804688 L 3.195312 19.449219 C 3.375 19.625 3.664062 19.625 3.839844 19.449219 Z M 3.839844 19.449219 "/>
<path style=" stroke:none;fill-rule:nonzero;fill:rgb(95.686275%,26.274511%,21.176471%);fill-opacity:1;" d="M 2.554688 4.011719 L 17.988281 19.449219 C 18.167969 19.625 18.457031 19.625 18.632812 19.449219 L 19.277344 18.804688 C 19.453125 18.628906 19.453125 18.339844 19.277344 18.160156 L 3.839844 2.726562 C 3.664062 2.546875 3.375 2.546875 3.195312 2.726562 L 2.554688 3.367188 C 2.375 3.546875 2.375 3.835938 2.554688 4.011719 Z M 2.554688 4.011719 "/>
</g>
</svg>
